projects/plugins/jetpack/_inc/client/traffic/seo/yoast-jetpack-logos.svg

<svg fill="none" height="36" viewBox="0 0 58 36" width="58" xmlns="http://www.w3.org/2000/svg"><path d="m36.4279 7.32209h11.034l-.4153 1.12116h-10.6187c-2.355 0-4.2652 1.87465-4.2652 4.17035v12.1848c0 2.1001 1.4771 4.1704 4.9831 4.1704v1.133h-.7179c-2.972 0-5.4161-2.3847-5.4161-5.3093v-12.1789c0-2.92452 2.4144-5.29151 5.4161-5.29151zm13.5907-3.32209h3.945c-8.5307 22.4297-8.6431 23.6636-10.9568 26.0603-1.2339 1.2815-2.9246 1.8807-4.645 1.9397v-3.0313c2.9187-.4567 3.8322-2.9602 3.8322-4.4671 0-1.1922.0356-.7473-4.8704-13.2405h3.6424l2.9899 9.2898zm7.5696 8.3941v17.7077h-12.6949c.3915-.5695.6347-.9669.7177-1.151h10.8262v-16.5567c0-1.928-1.0143-3.07876-2.8592-3.73141l.3974-1.04404c2.4739.80683 3.6128 2.55685 3.6128 4.77545z" fill="#a3286a"/><path d="m18.4119 34c8.8365 0 16-7.1634 16-16 0-8.83656-7.1635-16-16-16-8.83659 0-16.00003 7.16344-16.00003 16 0 8.8366 7.16344 16 16.00003 16z" fill="#069e08" stroke="#fff" stroke-width="4"/><g fill="#fff"><path d="m19.1064 15.6488v13.5725l7-13.5725z"/><path d="m17.6906 20.3244v-13.54577l-6.9733 13.54577z"/></g></svg>

<svg width="58" height="36" viewBox="0 0 58 36" fill="none" xmlns="http://www.w3.org/2000/svg">
<path d="M36.4279 7.32209H47.4619L47.0466 8.44325H36.4279C34.0729 8.44325 32.1627 10.3179 32.1627 12.6136V24.7984C32.1627 26.8985 33.6398 28.9688 37.1458 28.9688V30.1018H36.4279C33.4559 30.1018 31.0118 27.7171 31.0118 24.7925V12.6136C31.0118 9.68908 33.4262 7.32209 36.4279 7.32209ZM50.0186 4H53.9636C45.4329 26.4297 45.3205 27.6636 43.0068 30.0603C41.7729 31.3418 40.0822 31.941 38.3618 32V28.9687C41.2805 28.512 42.194 26.0085 42.194 24.5016C42.194 23.3094 42.2296 23.7543 37.3236 11.2611H40.966L43.9559 20.5509L50.0186 4ZM57.5882 12.3941V30.1018H44.8933C45.2848 29.5323 45.528 29.1349 45.611 28.9508H56.4372V12.3941C56.4372 10.4661 55.4229 9.31534 53.578 8.66269L53.9754 7.61865C56.4493 8.42548 57.5882 10.1755 57.5882 12.3941Z" fill="#A3286A"/>
<path d="M18.4119 34C27.2484 34 34.4119 26.8366 34.4119 18C34.4119 9.16344 27.2484 2 18.4119 2C9.57531 2 2.41187 9.16344 2.41187 18C2.41187 26.8366 9.57531 34 18.4119 34Z" fill="#069E08" stroke="white" stroke-width="4"/>
<path d="M19.1064 15.6488V29.2213L26.1064 15.6488H19.1064Z" fill="white"/>
<path d="M17.6906 20.3244V6.77863L10.7173 20.3244H17.6906Z" fill="white"/>
</svg>
